brandFactory_export/2.Regular/Documento_Archivo HTML_2Regular.svg

<?xml version="1.0" encoding="UTF-8"?>
<svg width="24px" height="24px" viewBox="0 0 24 24" version="1.1" xmlns="http://www.w3.org/2000/svg" xmlns:xlink="http://www.w3.org/1999/xlink">
    <title>2.Regular/Documento_Archivo HTML_2Regular</title>
    <g id="Symbols" stroke="none" stroke-width="1" fill="none" fill-rule="evenodd">
        <g id="2.Regular/Documento_Archivo-HTML_2Regular" fill="#5CB615" fill-rule="nonzero">
            <path d="M16.2117647,0.0302521008 C16.487395,0.0302521008 16.7462185,0.134453782 16.9445378,0.322689076 L23.3042017,6.48067227 C23.4386555,6.61176471 23.5159664,6.77310924 23.5663866,6.94453782 C23.6033613,7.03193277 23.6235294,7.12941176 23.6235294,7.2302521 L23.6235294,21.9966387 C23.6235294,22.897479 22.8504202,23.6571429 21.9361345,23.6571429 L7.31764706,23.6571429 C6.41680672,23.6571429 5.62689076,22.8806723 5.62689076,21.9966387 L5.66722689,18.6722689 L2.90420168,18.6722689 C1.30420168,18.6722689 2.19149143e-10,17.3647059 2.19149143e-10,15.7613445 L2.19149143e-10,10.8470588 C2.19149143e-10,9.24369748 1.30420168,7.93613445 2.90420168,7.93613445 L5.62352941,7.93613445 L5.62352941,1.6907563 C5.62352941,0.820168067 6.42689076,0.0302521008 7.31428571,0.0302521008 L16.2117647,0.0302521008 Z M15.1596639,1.49243697 L7.31764706,1.49243697 C7.2302521,1.49243697 7.09243698,1.62352941 7.08571429,1.69411765 L7.08571429,7.93613445 L15.502521,7.93613445 C17.102521,7.93613445 18.4067227,9.24369748 18.4067227,10.8470588 L18.4067227,15.7613445 C18.4067227,17.3647059 17.102521,18.6722689 15.502521,18.6722689 L7.12941176,18.6722689 L7.08907563,22.0067227 C7.08907563,22.0672269 7.21008403,22.1983193 7.3210084,22.1983193 L21.9361345,22.1983193 C22.0537815,22.1983193 22.1680672,22.0840336 22.1680672,21.9966387 L22.1680672,8.27563025 L19.394958,8.27563025 C18.1781513,8.27563025 17.1260504,7.8789916 16.3529412,7.13277311 C15.5731092,6.37647059 15.1596639,5.34789916 15.1596639,4.15462185 L15.1596639,1.49243697 Z M15.4957983,9.39495798 L2.90420168,9.39495798 C2.10420168,9.39495798 1.45546219,10.0470588 1.45546219,10.8470588 L1.45546219,15.7613445 C1.45546219,16.5613445 2.10420168,17.2134454 2.90420168,17.2134454 L15.4957983,17.2134454 C16.2957983,17.2134454 16.9445378,16.5613445 16.9445378,15.7613445 L16.9445378,10.8470588 C16.9445378,10.0470588 16.2957983,9.39495798 15.4957983,9.39495798 Z M3.06218487,11.4957983 L3.06218487,13.0084034 L4.3697479,13.0084034 L4.3697479,11.4957983 L5.21680672,11.4957983 L5.21680672,15.210084 L4.3697479,15.210084 L4.3697479,13.6470588 L3.06218487,13.6470588 L3.06218487,15.210084 L2.21512605,15.210084 L2.21512605,11.4957983 L3.06218487,11.4957983 Z M9.99327731,11.4957983 L11.1663866,13.5697479 L12.3764706,11.4957983 L13.0285714,11.4957983 L13.0285714,15.210084 L12.2521008,15.210084 L12.2521008,13.0722689 L11.4823529,14.3630252 L10.8302521,14.3630252 L10.0369748,13.0487395 L10.0369748,15.210084 L9.32436975,15.210084 L9.32436975,11.4957983 L9.99327731,11.4957983 Z M14.6789916,11.4957983 L14.6789916,14.594958 L16.3226891,14.594958 L16.3226891,15.210084 L13.8319328,15.210084 L13.8319328,11.4957983 L14.6789916,11.4957983 Z M8.88403361,11.4957983 L8.82016807,12.107563 L7.69747899,12.107563 L7.69747899,15.2067227 L6.85042017,15.2067227 L6.85042017,12.107563 L5.69747899,12.107563 L5.69747899,11.4957983 L8.88403361,11.4957983 Z M16.6184874,2.03361345 L16.6184874,4.1512605 C16.6184874,4.94117647 16.8773109,5.60672269 17.3647059,6.08067227 C17.8621849,6.56134454 18.5613445,6.81344538 19.394958,6.81344538 L21.553,6.8132521 L16.6184874,2.03361345 Z" id="Documento_Archivo-HTML_2Regular"></path>
        </g>
    </g>
</svg>

<svg width="24" height="24" viewBox="0 0 24 24" xmlns="http://www.w3.org/2000/svg"><path d="M16.212.03c.275 0 .534.104.733.293l6.36 6.158c.134.13.211.292.261.464a.735.735 0 01.058.285v14.767c0 .9-.774 1.66-1.688 1.66H7.318c-.901 0-1.691-.776-1.691-1.66l.04-3.325H2.904A2.913 2.913 0 010 15.762v-4.915a2.913 2.913 0 012.904-2.91h2.72V1.69c0-.87.803-1.66 1.69-1.66h8.898zM15.16 1.492H7.318c-.088 0-.226.132-.232.202v6.242h8.417c1.6 0 2.904 1.308 2.904 2.911v4.914a2.913 2.913 0 01-2.904 2.911H7.129l-.04 3.335c0 .06.121.191.232.191h14.615c.118 0 .232-.114.232-.201V8.276h-2.773c-1.217 0-2.269-.397-3.042-1.143-.78-.757-1.193-1.785-1.193-2.978V1.492zm.336 7.903H2.904c-.8 0-1.449.652-1.449 1.452v4.914c0 .8.65 1.452 1.45 1.452h12.59c.8 0 1.45-.652 1.45-1.452v-4.914c0-.8-.65-1.452-1.45-1.452zm-12.434 2.1v1.513H4.37v-1.512h.847v3.714H4.37v-1.563H3.062v1.563h-.847v-3.714h.847zm6.931 0l1.173 2.075 1.21-2.074h.653v3.714h-.777v-2.138l-.77 1.291h-.652l-.793-1.314v2.161h-.713v-3.714h.67zm4.686 0v3.1h1.644v.615h-2.491v-3.714h.847zm-5.795 0l-.064.613H7.697v3.099H6.85v-3.1H5.697v-.611h3.187zm7.734-9.461V4.15c0 .79.26 1.456.747 1.93.497.48 1.196.732 2.03.732h2.158l-4.935-4.78z" fill="#5CB615" fill-rule="nonzero"/></svg>
